;FLAVOR:UltiGCode
;TIME:2632
;MATERIAL:5095
;MATERIAL2:0
;NOZZLE_DIAMETER:0.4
;MINX:86.712
;MINY:95.831
;MINZ:0.27
;MAXX:136.284
;MAXY:126.284
;MAXZ:25.02
;TARGET_MACHINE.NAME:Ultimaker 2+
;Generated with Cura_SteamEngine 5.7.1
M82 ;absolute extrusion mode
G0 F3000 Y50 ;avoid prime blob
G92 E0
G92 E0
G10
;LAYER_COUNT:166
;LAYER:0
M107
;MESH:TasterHalterung.stl
G0 F9000 X136.204 Y126.204 Z0.27
;TYPE:WALL-OUTER
G11
G1 F1800 X136.204 Y96.792 E3.49415
G1 X86.792 Y96.792 E9.36429
G1 X86.792 Y126.204 E12.85844
G1 X136.204 Y126.204 E18.72858
G0 F9000 X136.204 Y126.004
G0 X135.804 Y125.804
;TYPE:WALL-INNER
G1 F1800 X135.804 Y97.192 E21.66417
G1 X87.192 Y97.192 E26.65176
G1 X87.192 Y125.804 E29.58736
G1 X135.804 Y125.804 E34.57495
G0 F9000 X135.484 Y125.484
;TYPE:SKIN
G1 F1800 X135.484 Y97.512 E37.30138
G1 X87.512 Y97.512 E41.97721
G1 X87.512 Y125.484 E44.70364
G1 X135.484 Y125.484 E49.37947
G10
G0 F9000 X135.784 Y125.484
G0 X135.784 Y97.948
G0 X135.284 Y97.948
G11
G1 F1800 X135.047 Y97.712 E49.41207
G0 F9000 X134.482 Y97.712
G1 F1800 X135.284 Y98.514 E49.52262
G0 F9000 X135.284 Y99.08
G1 F1800 X133.916 Y97.712 E49.71119
G0 F9000 X133.35 Y97.712
G1 F1800 X135.284 Y99.645 E49.97771
G0 F9000 X135.284 Y100.211
G1 F1800 X132.785 Y97.712 E50.32218
G0 F9000 X132.219 Y97.712
G1 F1800 X135.284 Y100.777 E50.74467
G0 F9000 X135.284 Y101.343
G1 F1800 X131.653 Y97.712 E51.24518
G0 F9000 X131.088 Y97.712
G1 F1800 X135.284 Y101.908 E51.82357
G0 F9000 X135.284 Y102.474
G1 F1800 X130.522 Y97.712 E52.47998
G0 F9000 X129.956 Y97.712
G1 F1800 X135.284 Y103.04 E53.21441
G0 F9000 X135.284 Y103.605
G1 F1800 X129.391 Y97.712 E54.02672
G0 F9000 X128.825 Y97.712
G1 F1800 X135.284 Y104.171 E54.91705
G0 F9000 X135.284 Y104.737
G1 F1800 X128.259 Y97.712 E55.8854
G0 F9000 X127.694 Y97.712
G1 F1800 X135.284 Y105.302 E56.93163
G0 F9000 X135.284 Y105.868
G1 F1800 X127.128 Y97.712 E58.05589
G0 F9000 X126.562 Y97.712
G1 F1800 X135.284 Y106.434 E59.25816
G0 F9000 X135.284 Y106.999
G1 F1800 X125.997 Y97.712 E60.53831
G0 F9000 X125.431 Y97.712
G1 F1800 X135.284 Y107.565 E61.89648
G0 F9000 X135.284 Y108.131
G1 F1800 X124.865 Y97.712 E63.33267
G0 F9000 X124.299 Y97.712
G1 F1800 X135.284 Y108.696 E64.84681
G0 F9000 X135.284 Y109.262
G1 F1800 X123.734 Y97.712 E66.4389
G0 F9000 X123.168 Y97.712
G1 F1800 X135.284 Y109.828 E68.10901
G0 F9000 X135.284 Y110.394
G1 F1800 X122.602 Y97.712 E69.85714
G0 F9000 X122.037 Y97.712
G1 F1800 X135.284 Y110.959 E71.68315
G0 F9000 X135.284 Y111.525
G1 F1800 X121.471 Y97.712 E73.58718
G0 F9000 X120.905 Y97.712
G1 F1800 X135.284 Y112.091 E75.56923
G0 F9000 X135.284 Y112.656
G1 F1800 X120.34 Y97.712 E77.62917
G0 F9000 X119.774 Y97.712
G1 F1800 X135.284 Y113.222 E79.76712
G0 F9000 X135.284 Y113.788
G1 F1800 X119.208 Y97.712 E81.98309
G0 F9000 X118.643 Y97.712
G1 F1800 X135.284 Y114.353 E84.27694
G0 F9000 X135.284 Y114.919
G1 F1800 X118.077 Y97.712 E86.64881
G0 F9000 X117.511 Y97.712
G1 F1800 X135.284 Y115.485 E89.0987
G0 F9000 X135.284 Y116.05
G1 F1800 X116.946 Y97.712 E91.62647
G0 F9000 X116.38 Y97.712
G1 F1800 X135.284 Y116.616 E94.23226
G0 F9000 X135.284 Y117.182
G1 F1800 X115.814 Y97.712 E96.91608
G0 F9000 X115.249 Y97.712
G1 F1800 X135.284 Y117.747 E99.67777
G0 F9000 X135.284 Y118.313
G1 F1800 X114.683 Y97.712 E102.51748
G0 F9000 X114.117 Y97.712
G1 F1800 X135.284 Y118.879 E105.43521
G0 F9000 X135.284 Y119.444
G1 F1800 X113.551 Y97.712 E108.43089
G0 F9000 X112.986 Y97.712
G1 F1800 X135.284 Y120.01 E111.50452
G0 F9000 X135.284 Y120.576
G1 F1800 X112.42 Y97.712 E114.65618
G0 F9000 X111.854 Y97.712
G1 F1800 X135.284 Y121.142 E117.88585
G0 F9000 X135.284 Y121.707
G1 F1800 X111.289 Y97.712 E121.1934
G0 F9000 X110.723 Y97.712
G1 F1800 X135.284 Y122.273 E124.57897
G0 F9000 X135.284 Y122.839
G1 F1800 X110.157 Y97.712 E128.04256
G0 F9000 X109.592 Y97.712
G1 F1800 X135.284 Y123.404 E131.58403
G0 F9000 X135.284 Y123.97
G1 F1800 X109.026 Y97.712 E135.20353
G0 F9000 X108.46 Y97.712
G1 F1800 X135.284 Y124.536 E138.90104
G0 F9000 X135.284 Y125.101
G1 F1800 X107.895 Y97.712 E142.67643
G0 F9000 X107.329 Y97.712
G1 F1800 X134.9 Y125.284 E146.47698
G0 F9000 X134.335 Y125.284
G1 F1800 X106.763 Y97.712 E150.2776
G0 F9000 X106.198 Y97.712
G1 F1800 X133.769 Y125.284 E154.07815
G0 F9000 X133.203 Y125.284
G1 F1800 X105.632 Y97.712 E157.8787
G0 F9000 X105.066 Y97.712
G1 F1800 X132.638 Y125.284 E161.67931
G0 F9000 X132.072 Y125.284
G1 F1800 X104.5 Y97.712 E165.47993
G0 F9000 X103.935 Y97.712
G1 F1800 X131.506 Y125.284 E169.28048
G0 F9000 X130.941 Y125.284
G1 F1800 X103.369 Y97.712 E173.0811
G0 F9000 X102.803 Y97.712
G1 F1800 X130.375 Y125.284 E176.88172
G0 F9000 X129.809 Y125.284
G1 F1800 X102.238 Y97.712 E180.68227
G0 F9000 X101.672 Y97.712
G1 F1800 X129.244 Y125.284 E184.48288
G0 F9000 X128.678 Y125.284
G1 F1800 X101.106 Y97.712 E188.2835
G0 F9000 X100.541 Y97.712
G1 F1800 X128.112 Y125.284 E192.08405
G0 F9000 X127.547 Y125.284
G1 F1800 X99.975 Y97.712 E195.88467
G0 F9000 X99.409 Y97.712
G1 F1800 X126.981 Y125.284 E199.68529
G0 F9000 X126.415 Y125.284
G1 F1800 X98.844 Y97.712 E203.48584
G0 F9000 X98.278 Y97.712
G1 F1800 X125.849 Y125.284 E207.28639
G0 F9000 X125.284 Y125.284
G1 F1800 X97.712 Y97.712 E211.087
G0 F9000 X97.147 Y97.712
G1 F1800 X124.718 Y125.284 E214.88755
G0 F9000 X124.152 Y125.284
G1 F1800 X96.581 Y97.712 E218.6881
G0 F9000 X96.015 Y97.712
G1 F1800 X123.587 Y125.284 E222.48872
G0 F9000 X123.021 Y125.284
G1 F1800 X95.45 Y97.712 E226.28927
G0 F9000 X94.884 Y97.712
G1 F1800 X122.455 Y125.284 E230.08982
G0 F9000 X121.89 Y125.284
G1 F1800 X94.318 Y97.712 E233.89044
G0 F9000 X93.752 Y97.712
G1 F1800 X121.324 Y125.284 E237.69106
G0 F9000 X120.758 Y125.284
G1 F1800 X93.187 Y97.712 E241.4916
G0 F9000 X92.621 Y97.712
G1 F1800 X120.193 Y125.284 E245.29222
G0 F9000 X119.627 Y125.284
G1 F1800 X92.055 Y97.712 E249.09284
G0 F9000 X91.49 Y97.712
G1 F1800 X119.061 Y125.284 E252.89339
G0 F9000 X118.496 Y125.284
G1 F1800 X90.924 Y97.712 E256.69401
G0 F9000 X90.358 Y97.712
G1 F1800 X117.93 Y125.284 E260.49463
G0 F9000 X117.364 Y125.284
G1 F1800 X89.793 Y97.712 E264.29518
G0 F9000 X89.227 Y97.712
G1 F1800 X116.798 Y125.284 E268.09572
G0 F9000 X116.233 Y125.284
G1 F1800 X88.661 Y97.712 E271.89634
G0 F9000 X88.096 Y97.712
G1 F1800 X115.667 Y125.284 E275.69689
G0 F9000 X115.101 Y125.284
G1 F1800 X87.712 Y97.895 E279.47228
G0 F9000 X87.712 Y98.46
G1 F1800 X114.536 Y125.284 E283.1698
G0 F9000 X113.97 Y125.284
G1 F1800 X87.712 Y99.026 E286.78929
G0 F9000 X87.712 Y99.592
G1 F1800 X113.404 Y125.284 E290.33076
G0 F9000 X112.839 Y125.284
G1 F1800 X87.712 Y100.157 E293.79435
G0 F9000 X87.712 Y100.723
G1 F1800 X112.273 Y125.284 E297.17992
G0 F9000 X111.707 Y125.284
G1 F1800 X87.712 Y101.289 E300.48748
G0 F9000 X87.712 Y101.854
G1 F1800 X111.142 Y125.284 E303.71715
G0 F9000 X110.576 Y125.284
G1 F1800 X87.712 Y102.42 E306.8688
G0 F9000 X87.712 Y102.986
G1 F1800 X110.01 Y125.284 E309.94243
G0 F9000 X109.445 Y125.284
G1 F1800 X87.712 Y103.552 E312.93811
G0 F9000 X87.712 Y104.117
G1 F1800 X108.879 Y125.284 E315.85584
G0 F9000 X108.313 Y125.284
G1 F1800 X87.712 Y104.683 E318.69555
G0 F9000 X87.712 Y105.249
G1 F1800 X107.748 Y125.284 E321.45732
G0 F9000 X107.182 Y125.284
G1 F1800 X87.712 Y105.814 E324.14113
G0 F9000 X87.712 Y106.38
G1 F1800 X106.616 Y125.284 E326.74692
G0 F9000 X106.05 Y125.284
G1 F1800 X87.712 Y106.946 E329.27469
G0 F9000 X87.712 Y107.511
G1 F1800 X105.485 Y125.284 E331.72458
G0 F9000 X104.919 Y125.284
G1 F1800 X87.712 Y108.077 E334.09645
G0 F9000 X87.712 Y108.643
G1 F1800 X104.353 Y125.284 E336.3903
G0 F9000 X103.788 Y125.284
G1 F1800 X87.712 Y109.208 E338.60627
G0 F9000 X87.712 Y109.774
G1 F1800 X103.222 Y125.284 E340.74423
G0 F9000 X102.656 Y125.284
G1 F1800 X87.712 Y110.34 E342.80416
G0 F9000 X87.712 Y110.905
G1 F1800 X102.091 Y125.284 E344.78621
G0 F9000 X101.525 Y125.284
G1 F1800 X87.712 Y111.471 E346.69024
G0 F9000 X87.712 Y112.037
G1 F1800 X100.959 Y125.284 E348.51625
G0 F9000 X100.394 Y125.284
G1 F1800 X87.712 Y112.603 E350.26431
G0 F9000 X87.712 Y113.168
G1 F1800 X99.828 Y125.284 E351.93442
G0 F9000 X99.262 Y125.284
G1 F1800 X87.712 Y113.734 E353.52651
G0 F9000 X87.712 Y114.3
G1 F1800 X98.697 Y125.284 E355.04065
G0 F9000 X98.131 Y125.284
G1 F1800 X87.712 Y114.865 E356.47684
G0 F9000 X87.712 Y115.431
G1 F1800 X97.565 Y125.284 E357.83501
G0 F9000 X96.999 Y125.284
G1 F1800 X87.712 Y115.997 E359.11517
G0 F9000 X87.712 Y116.562
G1 F1800 X96.434 Y125.284 E360.31744
G0 F9000 X95.868 Y125.284
G1 F1800 X87.712 Y117.128 E361.44169
G0 F9000 X87.712 Y117.694
G1 F1800 X95.302 Y125.284 E362.48792
G0 F9000 X94.737 Y125.284
G1 F1800 X87.712 Y118.259 E363.45627
G0 F9000 X87.712 Y118.825
G1 F1800 X94.171 Y125.284 E364.3466
G0 F9000 X93.605 Y125.284
G1 F1800 X87.712 Y119.391 E365.15891
G0 F9000 X87.712 Y119.956
G1 F1800 X93.04 Y125.284 E365.89334
G0 F9000 X92.474 Y125.284
G1 F1800 X87.712 Y120.522 E366.54975
G0 F9000 X87.712 Y121.088
G1 F1800 X91.908 Y125.284 E367.12814
G0 F9000 X91.343 Y125.284
G1 F1800 X87.712 Y121.653 E367.62865
G0 F9000 X87.712 Y122.219
G1 F1800 X90.777 Y125.284 E368.05114
G0 F9000 X90.211 Y125.284
G1 F1800 X87.712 Y122.785 E368.39561
G0 F9000 X87.712 Y123.351
G1 F1800 X89.646 Y125.284 E368.66213
G0 F9000 X89.08 Y125.284
G1 F1800 X87.712 Y123.916 E368.8507
G0 F9000 X87.712 Y124.482
G1 F1800 X88.514 Y125.284 E368.96125
G0 F9000 X87.949 Y125.284
G1 F1800 X87.712 Y125.048 E368.99385
G10
;MESH:NONMESH
G0 F600 X87.712 Y125.048 Z0.42
G0 F9000 X87.212 Y125.048
G0 X135.935 Y125.935
G0 X136.284 Y126.284
;TIME_ELAPSED:133.443700
;LAYER:1
M106 S255
;TYPE:WALL-OUTER
;MESH:TasterHalterung.stl
G11
G1 F2100 X136.284 Y96.712 E370.76817
G1 X86.712 Y96.712 E373.74249
G1 X86.712 Y126.284 E375.51681
G1 X136.284 Y126.284 E378.49113
G0 F9000 X136.284 Y126.084
G0 X135.884 Y125.884
;TYPE:WALL-INNER
G1 F2400 X135.884 Y97.112 E380.21745
G1 X87.112 Y97.112 E383.14377
G1 X87.112 Y125.884 E384.87009
G1 X135.884 Y125.884 E387.79641
G0 F9000 X135.564 Y125.564
;TYPE:SKIN
G1 F1800 X135.564 Y97.432 E389.39994
G1 X87.432 Y97.432 E392.14346
G1 X87.432 Y125.564 E393.74698
G1 X135.564 Y125.564 E396.49051
G0 F9000 X134.851 Y125.364
G1 F1800 X135.364 Y124.851 E396.53186
G0 F9000 X135.364 Y124.285
G1 F1800 X134.285 Y125.364 E396.61884
G0 F9000 X133.72 Y125.364
G1 F1800 X135.364 Y123.72 E396.75136
G0 F9000 X135.364 Y123.154
G1 F1800 X133.154 Y125.364 E396.92951
G0 F9000 X132.588 Y125.364
G1 F1800 X135.364 Y122.588 E397.15328
G0 F9000 X135.364 Y122.023
G1 F1800 X132.022 Y125.364 E397.42264
G0 F9000 X131.457 Y125.364
G1 F1800 X135.364 Y121.457 E397.73759
G0 F9000 X135.364 Y120.891
G1 F1800 X130.891 Y125.364 E398.09816
G0 F9000 X130.325 Y125.364
G1 F1800 X135.364 Y120.326 E398.50431
G0 F9000 X135.364 Y119.76
G1 F1800 X129.76 Y125.364 E398.95605
G0 F9000 X129.194 Y125.364
G1 F1800 X135.364 Y119.194 E399.45341
G0 F9000 X135.364 Y118.628
G1 F1800 X128.628 Y125.364 E399.99641
G0 F9000 X128.063 Y125.364
G1 F1800 X135.364 Y118.063 E400.58494
G0 F9000 X135.364 Y117.497
G1 F1800 X127.497 Y125.364 E401.2191
G0 F9000 X126.931 Y125.364
G1 F1800 X135.364 Y116.931 E401.89889
G0 F9000 X135.364 Y116.366
G1 F1800 X126.366 Y125.364 E402.62422
G0 F9000 X125.8 Y125.364
G1 F1800 X135.364 Y115.8 E403.39517
G0 F9000 X135.364 Y115.234
G1 F1800 X125.234 Y125.364 E404.21175
G0 F9000 X124.669 Y125.364
G1 F1800 X135.364 Y114.669 E405.07388
G0 F9000 X135.364 Y114.103
G1 F1800 X124.103 Y125.364 E405.98163
G0 F9000 X123.537 Y125.364
G1 F1800 X135.364 Y113.537 E406.93501
G0 F9000 X135.364 Y112.972
G1 F1800 X122.972 Y125.364 E407.93393
G0 F9000 X122.406 Y125.364
G1 F1800 X135.364 Y112.406 E408.97847
G0 F9000 X135.364 Y111.84
G1 F1800 X121.84 Y125.364 E410.06865
G0 F9000 X121.274 Y125.364
G1 F1800 X135.364 Y111.275 E411.2044
G0 F9000 X135.364 Y110.709
G1 F1800 X120.709 Y125.364 E412.38575
G0 F9000 X120.143 Y125.364
G1 F1800 X135.364 Y110.143 E413.61271
G0 F9000 X135.364 Y109.578
G1 F1800 X119.577 Y125.364 E414.88527
G0 F9000 X119.012 Y125.364
G1 F1800 X135.364 Y109.012 E416.2034
G0 F9000 X135.364 Y108.446
G1 F1800 X118.446 Y125.364 E417.56717
G0 F9000 X117.88 Y125.364
G1 F1800 X135.364 Y107.88 E418.97655
G0 F9000 X135.364 Y107.315
G1 F1800 X117.315 Y125.364 E420.43149
G0 F9000 X116.749 Y125.364
G1 F1800 X135.364 Y106.749 E421.93205
G0 F9000 X135.364 Y106.183
G1 F1800 X116.183 Y125.364 E423.47823
G0 F9000 X115.618 Y125.364
G1 F1800 X135.364 Y105.618 E425.06996
G0 F9000 X135.364 Y105.052
G1 F1800 X115.052 Y125.364 E426.70731
G0 F9000 X114.486 Y125.364
G1 F1800 X135.364 Y104.486 E428.39029
G0 F9000 X135.364 Y103.921
G1 F1800 X113.921 Y125.364 E430.11881
G0 F9000 X113.355 Y125.364
G1 F1800 X135.364 Y103.355 E431.89296
G0 F9000 X135.364 Y102.789
G1 F1800 X112.789 Y125.364 E433.71274
G0 F9000 X112.224 Y125.364
G1 F1800 X135.364 Y102.224 E435.57806
G0 F9000 X135.364 Y101.658
G1 F1800 X111.658 Y125.364 E437.489
G0 F9000 X111.092 Y125.364
G1 F1800 X135.364 Y101.092 E439.44557
G0 F9000 X135.364 Y100.527
G1 F1800 X110.526 Y125.364 E441.44773
G0 F9000 X109.961 Y125.364
G1 F1800 X135.364 Y99.961 E443.49547
G0 F9000 X135.364 Y99.395
G1 F1800 X109.395 Y125.364 E445.58883
G0 F9000 X108.829 Y125.364
G1 F1800 X135.364 Y98.829 E447.72782
G0 F9000 X135.364 Y98.264
G1 F1800 X108.264 Y125.364 E449.91236
G0 F9000 X107.698 Y125.364
G1 F1800 X135.364 Y97.698 E452.14252
G0 F9000 X134.865 Y97.632
G1 F1800 X107.132 Y125.364 E454.37804
G0 F9000 X106.567 Y125.364
G1 F1800 X134.299 Y97.632 E456.61352
G0 F9000 X133.734 Y97.632
G1 F1800 X106.001 Y125.364 E458.84905
G0 F9000 X105.435 Y125.364
G1 F1800 X133.168 Y97.632 E461.08457
G0 F9000 X132.602 Y97.632
G1 F1800 X104.87 Y125.364 E463.32005
G0 F9000 X104.304 Y125.364
G1 F1800 X132.037 Y97.632 E465.55557
G0 F9000 X131.471 Y97.632
G1 F1800 X103.738 Y125.364 E467.79109
G0 F9000 X103.173 Y125.364
G1 F1800 X130.905 Y97.632 E470.02657
G0 F9000 X130.34 Y97.632
G1 F1800 X102.607 Y125.364 E472.2621
G0 F9000 X102.041 Y125.364
G1 F1800 X129.774 Y97.632 E474.49762
G0 F9000 X129.208 Y97.632
G1 F1800 X101.475 Y125.364 E476.73314
G0 F9000 X100.91 Y125.364
G1 F1800 X128.643 Y97.632 E478.96866
G0 F9000 X128.077 Y97.632
G1 F1800 X100.344 Y125.364 E481.20418
G0 F9000 X99.778 Y125.364
G1 F1800 X127.511 Y97.632 E483.4397
G0 F9000 X126.945 Y97.632
G1 F1800 X99.213 Y125.364 E485.67518
G0 F9000 X98.647 Y125.364
G1 F1800 X126.38 Y97.632 E487.91071
G0 F9000 X125.814 Y97.632
G1 F1800 X98.081 Y125.364 E490.14623
G0 F9000 X97.516 Y125.364
G1 F1800 X125.248 Y97.632 E492.38171
G0 F9000 X124.683 Y97.632
G1 F1800 X96.95 Y125.364 E494.61723
G0 F9000 X96.384 Y125.364
G1 F1800 X124.117 Y97.632 E496.85275
G0 F9000 X123.551 Y97.632
G1 F1800 X95.819 Y125.364 E499.08823
G0 F9000 X95.253 Y125.364
G1 F1800 X122.986 Y97.632 E501.32376
G0 F9000 X122.42 Y97.632
G1 F1800 X94.687 Y125.364 E503.55928
G0 F9000 X94.122 Y125.364
G1 F1800 X121.854 Y97.632 E505.79476
G0 F9000 X121.289 Y97.632
G1 F1800 X93.556 Y125.364 E508.03028
G0 F9000 X92.99 Y125.364
G1 F1800 X120.723 Y97.632 E510.2658
G0 F9000 X120.157 Y97.632
G1 F1800 X92.425 Y125.364 E512.50128
G0 F9000 X91.859 Y125.364
G1 F1800 X119.592 Y97.632 E514.7368
G0 F9000 X119.026 Y97.632
G1 F1800 X91.293 Y125.364 E516.97233
G0 F9000 X90.727 Y125.364
G1 F1800 X118.46 Y97.632 E519.20785
G0 F9000 X117.894 Y97.632
G1 F1800 X90.162 Y125.364 E521.44333
G0 F9000 X89.596 Y125.364
G1 F1800 X117.329 Y97.632 E523.67885
G0 F9000 X116.763 Y97.632
G1 F1800 X89.03 Y125.364 E525.91437
G0 F9000 X88.465 Y125.364
G1 F1800 X116.197 Y97.632 E528.14985
G0 F9000 X115.632 Y97.632
G1 F1800 X87.899 Y125.364 E530.38538
G0 F9000 X87.632 Y125.066
G1 F1800 X115.066 Y97.632 E532.59683
G0 F9000 X114.5 Y97.632
G1 F1800 X87.632 Y124.5 E534.76267
G0 F9000 X87.632 Y123.935
G1 F1800 X113.935 Y97.632 E536.88296
G0 F9000 X113.369 Y97.632
G1 F1800 X87.632 Y123.369 E538.95762
G0 F9000 X87.632 Y122.803
G1 F1800 X112.803 Y97.632 E540.98666
G0 F9000 X112.238 Y97.632
G1 F1800 X87.632 Y122.238 E542.97015
G0 F9000 X87.632 Y121.672
G1 F1800 X111.672 Y97.632 E544.90802
G0 F9000 X111.106 Y97.632
G1 F1800 X87.632 Y121.106 E546.80027
G0 F9000 X87.632 Y120.54
G1 F1800 X110.541 Y97.632 E548.64692
G0 F9000 X109.975 Y97.632
